assets/images/Schedule/Schedule.svg

<svg width="48" height="48" viewBox="0 0 48 48" fill="none" xmlns="http://www.w3.org/2000/svg">
<circle cx="24" cy="24" r="24" fill="#F7C24D"/>
<path fill-rule="evenodd" clip-rule="evenodd" d="M32.0889 34.6111H16.2611C15.0141 34.6111 14 33.597 14 32.35V16.5222C14 15.2752 15.0141 14.2611 16.2611 14.2611H18.5222V12H20.7833V14.2611H27.5667V12H29.8278V14.2611H32.0889C33.3359 14.2611 34.35 15.2752 34.35 16.5222V32.35C34.35 33.597 33.3359 34.6111 32.0889 34.6111ZM32.09 32.35L32.0889 18.7833H16.2611V32.35H32.09ZM20.7833 22.175H18.5222V24.4361H20.7833V22.175ZM20.7833 26.6972H18.5222V28.9583H20.7833V26.6972ZM25.3056 22.175H23.0444V24.4361H25.3056V22.175ZM25.3056 26.6972H23.0444V28.9583H25.3056V26.6972ZM29.8278 22.175H27.5667V24.4361H29.8278V22.175ZM29.8278 26.6972H27.5667V28.9583H29.8278V26.6972Z" fill="#010107"/>
</svg>

<svg xmlns="http://www.w3.org/2000/svg" width="48" height="48" fill="none" viewBox="0 0 48 48"><circle cx="24" cy="24" r="24" fill="#F7C24D"/><path fill="#010107" fill-rule="evenodd" d="M32.089 34.611H16.26A2.263 2.263 0 0 1 14 32.35V16.522a2.263 2.263 0 0 1 2.261-2.26h2.261V12h2.261v2.261h6.784V12h2.26v2.261h2.262a2.263 2.263 0 0 1 2.261 2.261V32.35a2.263 2.263 0 0 1-2.261 2.261zm.001-2.261l-.001-13.567H16.26V32.35h15.83zM20.783 22.175h-2.26v2.261h2.26v-2.261zm0 4.522h-2.26v2.261h2.26v-2.26zm4.523-4.522h-2.262v2.261h2.262v-2.261zm0 4.522h-2.262v2.261h2.262v-2.26zm4.522-4.522h-2.261v2.261h2.26v-2.261zm0 4.522h-2.261v2.261h2.26v-2.26z" clip-rule="evenodd"/></svg>
